fonts/xavani/uni003c.svg

<?xml version="1.0" encoding="UTF-8" standalone="no"?>
<svg width="500" height="850" version="1.1" id="svg1" sodipodi:docname="uni003c.svg" inkscape:version="1.4.2 (ebf0e940, 2025-05-08)" xmlns:inkscape="http://www.inkscape.org/namespaces/inkscape" xmlns:sodipodi="http://sodipodi.sourceforge.net/DTD/sodipodi-0.dtd" xmlns="http://www.w3.org/2000/svg" xmlns:svg="http://www.w3.org/2000/svg">
    <defs id="defs1" />
    <sodipodi:namedview id="namedview1" pagecolor="#ffffff" bordercolor="#000000" borderopacity="0.25" inkscape:showpageshadow="2" inkscape:pageopacity="0.0" inkscape:pagecheckerboard="0" inkscape:deskcolor="#d1d1d1" inkscape:zoom="0.31652174" inkscape:cx="259.06593" inkscape:cy="426.51099" inkscape:window-width="1080" inkscape:window-height="675" inkscape:window-x="0" inkscape:window-y="25" inkscape:window-maximized="0" inkscape:current-layer="svg1" />
    <path id="path1" d="M 202.16406 309.51562 L 134.51562 377.16406 L 134.51562 472.83594 L 202.16406 540.48438 L 297.83594 540.48438 L 351.95508 486.36523 L 365.48438 472.83594 L 365.48438 453.70117 L 351.95508 440.17188 L 332.82031 440.17188 L 319.29102 453.70117 L 278.70117 494.29102 L 221.30078 494.29102 L 180.71094 453.70117 L 180.71094 396.30078 L 221.30078 355.71094 L 278.69922 355.71094 L 319.28906 396.30078 L 332.82031 409.83008 L 351.95312 409.83008 L 365.48438 396.30078 L 365.48438 377.16406 L 351.95508 363.63477 L 297.83594 309.51562 L 202.16406 309.51562 z " />
</svg>

<svg width="500" height="850" xmlns="http://www.w3.org/2000/svg">
    <path
        d="m365.484 377.164-13.529-13.53-54.12-54.118h-95.67l-67.65 67.648v95.672l67.65 67.648h95.67l54.12-54.119 13.53-13.53v-19.134l-13.53-13.53H332.82l-13.529 13.53-40.59 40.59H221.3l-40.59-40.59V396.3l40.59-40.59H278.7l40.59 40.59 13.53 13.53h19.134l13.53-13.53z" />
</svg>
